images/repv2.svg

<svg height="250" viewBox="0 0 250 250" width="250" xmlns="http://www.w3.org/2000/svg"><path d="m250 125c0 69.035156-55.964844 125-125 125s-125-55.964844-125-125 55.964844-125 125-125 125 55.964844 125 125zm0 0" fill="#0e0e21"/><path d="m194.773438 154.050781-14.871094-25.222656c-.550782-.9375-1.773438-1.222656-2.671875-.636719l-9.683594 6.289063c-.875.558593-1.144531 1.730469-.617187 2.628906l8.503906 14.414063c.269531.457031.128906 1.03125-.308594 1.316406l-49.613281 32.226562c-.320313.207032-.71875.207032-1.027344 0l-49.601563-32.226562c-.4375-.285156-.5625-.871094-.308593-1.316406l8.503906-14.414063c.527344-.898437.257813-2.070313-.617187-2.628906l-9.683594-6.289063c-.910156-.585937-2.117188-.300781-2.671875.636719l-14.871094 25.222656c-1.066406 1.796875-.527344 4.128907 1.21875 5.261719l66.488281 43.203125c1.261719.820313 2.878906.820313 4.136719 0l66.488281-43.203125c1.722656-1.132812 2.261719-3.464844 1.207032-5.261719zm0 0" fill="#fff"/><path d="m80.546875 114.765625 9.683594 6.289063c.914062.585937 2.121093.300781 2.671875-.636719l31.273437-53.019531c.371094-.625 1.269531-.625 1.644531 0l31.273438 53.019531c.550781.9375 1.769531 1.222656 2.671875.636719l9.683594-6.289063c.871093-.558594 1.140625-1.730469.613281-2.628906l-37.371094-63.371094c-.695312-1.171875-1.941406-1.890625-3.289062-1.890625h-8.808594c-1.351562 0-2.59375.71875-3.289062 1.890625l-37.375 63.371094c-.523438.898437-.253907 2.070312.617187 2.628906zm0 0" fill="#2ae7a8"/></svg>

<svg xmlns="http://www.w3.org/2000/svg" xmlns:xlink="http://www.w3.org/1999/xlink" width="250px" height="250px" viewBox="0 0 250 250" version="1.1">
<g id="surface1">
<path style=" stroke:none;fill-rule:nonzero;fill:rgb(5.490196%,5.490196%,12.941177%);fill-opacity:1;" d="M 250 125 C 250 194.035156 194.035156 250 125 250 C 55.964844 250 0 194.035156 0 125 C 0 55.964844 55.964844 0 125 0 C 194.035156 0 250 55.964844 250 125 Z M 250 125 "/>
<path style=" stroke:none;fill-rule:nonzero;fill:rgb(100%,100%,100%);fill-opacity:1;" d="M 194.773438 154.050781 L 179.902344 128.828125 C 179.351562 127.890625 178.128906 127.605469 177.230469 128.191406 L 167.546875 134.480469 C 166.671875 135.039062 166.402344 136.210938 166.929688 137.109375 L 175.433594 151.523438 C 175.703125 151.980469 175.5625 152.554688 175.125 152.839844 L 125.511719 185.066406 C 125.191406 185.273438 124.792969 185.273438 124.484375 185.066406 L 74.882812 152.839844 C 74.445312 152.554688 74.320312 151.96875 74.574219 151.523438 L 83.078125 137.109375 C 83.605469 136.210938 83.335938 135.039062 82.460938 134.480469 L 72.777344 128.191406 C 71.867188 127.605469 70.660156 127.890625 70.105469 128.828125 L 55.234375 154.050781 C 54.167969 155.847656 54.707031 158.179688 56.453125 159.3125 L 122.941406 202.515625 C 124.203125 203.335938 125.820312 203.335938 127.078125 202.515625 L 193.566406 159.3125 C 195.289062 158.179688 195.828125 155.847656 194.773438 154.050781 Z M 194.773438 154.050781 "/>
<path style=" stroke:none;fill-rule:nonzero;fill:rgb(16.470589%,90.588236%,65.882355%);fill-opacity:1;" d="M 80.546875 114.765625 L 90.230469 121.054688 C 91.144531 121.640625 92.351562 121.355469 92.902344 120.417969 L 124.175781 67.398438 C 124.546875 66.773438 125.445312 66.773438 125.820312 67.398438 L 157.09375 120.417969 C 157.644531 121.355469 158.863281 121.640625 159.765625 121.054688 L 169.449219 114.765625 C 170.320312 114.207031 170.589844 113.035156 170.0625 112.136719 L 132.691406 48.765625 C 131.996094 47.59375 130.75 46.875 129.402344 46.875 L 120.59375 46.875 C 119.242188 46.875 118 47.59375 117.304688 48.765625 L 79.929688 112.136719 C 79.40625 113.035156 79.675781 114.207031 80.546875 114.765625 Z M 80.546875 114.765625 "/>
</g>
</svg>
